svg/down-bordered.svg

<?xml version="1.0" encoding="UTF-8"?>
<svg xmlns="http://www.w3.org/2000/svg" xmlns:xlink="http://www.w3.org/1999/xlink" width="32" height="32" viewBox="0 0 32 32">
<path fill-rule="nonzero" fill="rgb(100%, 100%, 100%)" fill-opacity="1" d="M 15.769531 2.667969 C 8.535156 2.667969 2.667969 8.636719 2.667969 16 C 2.667969 23.363281 8.535156 29.332031 15.769531 29.332031 C 23.007812 29.332031 28.875 23.363281 28.875 16 C 28.875 8.636719 23.007812 2.667969 15.769531 2.667969 "/>
<path fill-rule="nonzero" fill="rgb(0%, 0%, 0%)" fill-opacity="1" d="M 15.902344 28.316406 C 22.636719 28.316406 28.121094 22.835938 28.121094 16.097656 C 28.121094 9.359375 22.640625 3.878906 15.902344 3.878906 C 9.164062 3.878906 3.683594 9.359375 3.683594 16.097656 C 3.683594 22.835938 9.164062 28.316406 15.902344 28.316406 M 10.339844 18.449219 C 10.417969 18.257812 10.605469 18.132812 10.8125 18.132812 L 12.339844 18.132812 C 12.476562 18.132812 12.605469 18.1875 12.699219 18.285156 L 14.882812 20.46875 L 14.882812 8.460938 C 14.882812 8.324219 14.9375 8.195312 15.035156 8.101562 C 15.128906 8 15.257812 7.949219 15.394531 7.953125 L 16.410156 7.953125 C 16.546875 7.949219 16.675781 8.003906 16.769531 8.101562 C 16.867188 8.195312 16.921875 8.324219 16.921875 8.460938 L 16.921875 20.46875 L 19.105469 18.285156 C 19.199219 18.1875 19.328125 18.132812 19.464844 18.132812 L 20.992188 18.132812 C 21.199219 18.132812 21.382812 18.25 21.464844 18.445312 C 21.542969 18.636719 21.5 18.855469 21.351562 19.003906 L 16.261719 24.09375 C 16.0625 24.289062 15.742188 24.289062 15.542969 24.09375 L 10.449219 19.003906 C 10.304688 18.855469 10.261719 18.636719 10.339844 18.449219 "/>
</svg>

<svg role="img" viewBox="0 0 32 32" height="32" width="32" xmlns="http://www.w3.org/2000/svg"><path d="M15.77 2.668C8.535 2.668 2.668 8.637 2.668 16S8.535 29.332 15.77 29.332c7.238 0 13.105-5.969 13.105-13.332S23.008 2.668 15.77 2.668" fill="rgb(100%, 100%, 100%)"/><path d="M15.902 28.316c6.735 0 12.22-5.48 12.22-12.218 0-6.739-5.481-12.22-12.22-12.22-6.738 0-12.218 5.481-12.218 12.22 0 6.738 5.48 12.218 12.218 12.218M10.34 18.45a.51.51 0 0 1 .473-.316h1.527c.137 0 .265.055.36.152l2.183 2.184V8.46a.5.5 0 0 1 .152-.36.478.478 0 0 1 .36-.148h1.015a.478.478 0 0 1 .36.149.496.496 0 0 1 .152.359v12.008l2.183-2.184a.496.496 0 0 1 .36-.152h1.527c.207 0 .39.117.473.312a.513.513 0 0 1-.113.559l-5.09 5.09a.514.514 0 0 1-.719 0l-5.094-5.09a.514.514 0 0 1-.11-.555"/></svg>
